src/icons/remove-folder.svg

<?xml version="1.0" encoding="UTF-8"?>
<svg xmlns="http://www.w3.org/2000/svg" xmlns:xlink="http://www.w3.org/1999/xlink" width="32" height="32" viewBox="0 0 32 32" version="1.1">
<g id="surface1">
<path style=" stroke:none;fill-rule:nonzero;fill:rgb(0%,0%,0%);fill-opacity:1;" d="M 3.199219 1.921875 C 2.140625 1.921875 1.28125 2.78125 1.28125 3.839844 L 1.28125 7.679688 L 30.71875 7.679688 L 30.71875 6.398438 C 30.71875 5.339844 29.859375 4.480469 28.800781 4.480469 L 11.546875 4.484375 C 11.371094 4.417969 11 3.832031 10.800781 3.515625 C 10.3125 2.730469 9.804688 1.921875 8.960938 1.921875 Z M 1.921875 8.960938 C 1.566406 8.960938 1.28125 9.246094 1.28125 9.601562 L 1.28125 26.878906 C 1.28125 27.9375 2.140625 28.800781 3.199219 28.800781 L 20.070312 28.800781 C 21.179688 30.707031 23.246094 32 25.601562 32 C 29.121094 32 32 29.121094 32 25.601562 C 32 24.171875 31.519531 22.851562 30.71875 21.785156 L 30.71875 9.601562 C 30.71875 9.246094 30.433594 8.960938 30.078125 8.960938 Z M 25.601562 20.480469 C 28.414062 20.480469 30.71875 22.785156 30.71875 25.601562 C 30.71875 28.414062 28.414062 30.71875 25.601562 30.71875 C 22.785156 30.71875 20.480469 28.414062 20.480469 25.601562 C 20.480469 22.785156 22.785156 20.480469 25.601562 20.480469 Z M 23.359375 22.71875 C 23.199219 22.71875 23.039062 22.785156 22.914062 22.914062 C 22.65625 23.167969 22.65625 23.550781 22.914062 23.808594 L 24.703125 25.601562 L 22.914062 27.390625 C 22.65625 27.648438 22.65625 28.03125 22.914062 28.289062 C 23.039062 28.414062 23.230469 28.480469 23.359375 28.480469 C 23.488281 28.480469 23.679688 28.414062 23.808594 28.289062 L 25.601562 26.496094 L 27.390625 28.289062 C 27.519531 28.414062 27.710938 28.480469 27.839844 28.480469 C 27.96875 28.480469 28.160156 28.414062 28.289062 28.289062 C 28.542969 28.03125 28.542969 27.648438 28.289062 27.390625 L 26.496094 25.601562 L 28.289062 23.808594 C 28.542969 23.550781 28.542969 23.167969 28.289062 22.914062 C 28.03125 22.65625 27.648438 22.65625 27.390625 22.914062 L 25.601562 24.703125 L 23.808594 22.914062 C 23.679688 22.785156 23.519531 22.71875 23.359375 22.71875 Z M 23.359375 22.71875 "/>
</g>
</svg>

<svg role="img" viewBox="0 0 32 32" xmlns="http://www.w3.org/2000/svg"><path d="M3.2 1.922A1.92 1.92 0 0 0 1.281 3.84v3.84H30.72V6.398a1.92 1.92 0 0 0-1.918-1.918l-17.254.004c-.176-.066-.547-.652-.746-.968-.489-.786-.996-1.594-1.84-1.594ZM1.921 8.96a.639.639 0 0 0-.64.64v17.28c0 1.058.859 1.922 1.917 1.922H20.07C21.18 30.707 23.246 32 25.602 32 29.122 32 32 29.121 32 25.602c0-1.43-.48-2.75-1.281-3.817V9.602a.639.639 0 0 0-.64-.641Zm23.68 11.52c2.812 0 5.117 2.304 5.117 5.12 0 2.813-2.305 5.118-5.117 5.118-2.817 0-5.122-2.305-5.122-5.117 0-2.817 2.305-5.122 5.122-5.122m-2.243 2.238a.62.62 0 0 0-.445.195.614.614 0 0 0 0 .895l1.79 1.793-1.79 1.789a.618.618 0 0 0 0 .898.692.692 0 0 0 .445.191c.13 0 .32-.066.45-.19l1.793-1.794 1.789 1.793c.129.125.32.191.449.191s.32-.066.45-.19a.625.625 0 0 0 0-.9L26.495 25.6l1.793-1.793a.62.62 0 0 0 0-.895.618.618 0 0 0-.898 0l-1.79 1.79-1.792-1.79a.636.636 0 0 0-.45-.195m0 0" style="stroke:none;fill-rule:nonzero;fill:rgb(0%,0%,0%);fill-opacity:1"/></svg>
